X: 15522
T: Glenside, The
R: polka
M: 2/4
K: Edorian
|:B>B BA|FA DA|B>B BA|B/c/d ed|
B>B BA|FA DE|FD dF|E2 E2:|
|:Be ef|ed eA|Be ef|ed Bc|
d>e dB|AF DE|FD dF|E2 E2:|

